X:1
T:Polkett efter Jns Olsson
T: (SvL Skne nr. 11, "Den skggede gubben")
R:Polkett
Z:Patrik Mnsson, 2009-01-02
O:\~nrkened, Skne
S:efter JnsOlsson
S:Svenska Ltar
D:Inspelad i G-dur av Gunnar Larsson (mandolinbanjo) och Lennart Polarbo (gitarr) som lt nr 15 p Gingemusickanternas skiva "Det dansar en Ging 2" (2007).
M:2/4
L:1/16
K:D
|: AA| d2dd e2ee | f2ff d2A2 | e2ee c2A2 | f2ff d2A2 |
d2dd e2ee | f2ff d2A2 | e2ee c2A2 |[1 dddd d2 :|[2 dddd d2 z2 ]|
|: f2ff f2A2 | gggg g2g2 | e2ee e2c2 | aaaa a2 z2 |
f2ff f2A2 |gggg g2g2 | cccc c2A2 |[1 dddd d4 :|[2 dddd d2 ]|
